X: 630
T: Da kuqi
L: 1/16
M: 4/4
K: G
d2> d2 d2 d2 e2 d B2< d2 B [I:setbarnb 1]| 
d8d2 e2 d2 e e | 
d e d B A B E GA8 | 
A2 A B d2 d2 d2 d2 e2 B2 | 
A B A G G2 F2E8 | 
G2 F E G2 B4<A4B A | 
G2 F E D2 E GD8 | 
G2 F E G2 B4<A4B A | 
G2 F E D2 E GD8 |]

@@@ Tune index: 9504
